icon-themes/breeze_svg/cmd/32/insertcolumnsafter.svg

<svg viewBox="0 0 32 32" xmlns="http://www.w3.org/2000/svg"><path d="m4 4v24h14v-1h-5v-3h5v-1h-5v-3h5v-1h-5v-3h6v-1h-6v-3h6v-1h-6v-3h6v-1h-6v-2h6v-1zm1 1h7v2h-7zm0 3h7v3h-7zm0 4h7v3h-7zm0 4h7v3h-7zm18 3v4h-4v1h4v4h1v-4h4v-1h-4v-4zm-18 1h7v3h-7zm0 4h7v3h-7z" fill="#4d4d4d"/><path d="m19 4v14h1v-.341797l.398438.341797h1.537109l-1.611328-1.380859-.324219-.277344v-2.683594l5.064453 4.341797h1.537109l-6.277343-5.380859-.324219-.277344v-2.6835939l6.673828 5.7207029.326172.28125v2.339844h1v-14h-1-7zm1.769531 1h3.128907l2.77539 2.3789062.326172.28125v2.6816408zm4.666016 0h1.564453v1.3417969zm-5.435547.6582031 6.673828 5.7207029.326172.28125v2.681641l-6.675781-5.7226564-.324219-.2773437z" fill="#1d99f3"/></svg>

<svg xmlns="http://www.w3.org/2000/svg" viewBox="0 0 32 32">
 <path 
     style="fill:#4d4d4d" 
     d="M 4 4 L 4 28 L 18 28 L 18 27 L 13 27 L 13 24 L 18 24 L 18 23 L 13 23 L 13 20 L 18 20 L 18 19 L 13 19 L 13 16 L 19 16 L 19 15 L 13 15 L 13 12 L 19 12 L 19 11 L 13 11 L 13 8 L 19 8 L 19 7 L 13 7 L 13 5 L 19 5 L 19 4 L 4 4 z M 5 5 L 12 5 L 12 7 L 5 7 L 5 5 z M 5 8 L 12 8 L 12 11 L 5 11 L 5 8 z M 5 12 L 12 12 L 12 15 L 5 15 L 5 12 z M 5 16 L 12 16 L 12 19 L 5 19 L 5 16 z M 23 19 L 23 23 L 19 23 L 19 24 L 23 24 L 23 28 L 24 28 L 24 24 L 28 24 L 28 23 L 24 23 L 24 19 L 23 19 z M 5 20 L 12 20 L 12 23 L 5 23 L 5 20 z M 5 24 L 12 24 L 12 27 L 5 27 L 5 24 z "
     />
 <path 
     style="fill:#1d99f3" 
     d="M 19 4 L 19 18 L 20 18 L 20 17.658203 L 20.398438 18 L 21.935547 18 L 20.324219 16.619141 L 20 16.341797 L 20 13.658203 L 25.064453 18 L 26.601562 18 L 20.324219 12.619141 L 20 12.341797 L 20 9.6582031 L 26.673828 15.378906 L 27 15.660156 L 27 18 L 28 18 L 28 4 L 27 4 L 20 4 L 19 4 z M 20.769531 5 L 23.898438 5 L 26.673828 7.3789062 L 27 7.6601562 L 27 10.341797 L 20.769531 5 z M 25.435547 5 L 27 5 L 27 6.3417969 L 25.435547 5 z M 20 5.6582031 L 26.673828 11.378906 L 27 11.660156 L 27 14.341797 L 20.324219 8.6191406 L 20 8.3417969 L 20 5.6582031 z "
     />
</svg>
